Newaita-dark/actions/32/gnumeric-format-valign-justify.svg

<svg height="32" viewBox="0 0 32 32" width="32" xmlns="http://www.w3.org/2000/svg"><g fill="#e0e0e0"><path d="m2.976562 4.21875h25.800782c.179687 0 .328125-.148438.328125-.332031v-.644531c0-.179688-.148438-.328126-.328125-.328126h-25.800782c-.183593 0-.332031.148438-.332031.328126v.644531c0 .183593.148438.332031.332031.332031zm0 0"/><path d="m2.976562 8.1875h25.800782c.179687 0 .328125-.148438.328125-.328125v-.648437c0-.179688-.148438-.328126-.328125-.328126h-25.800782c-.183593 0-.332031.148438-.332031.328126v.648437c0 .179687.148438.328125.332031.328125zm0 0"/><path d="m2.976562 14.785156h25.800782c.179687 0 .328125-.148437.328125-.328125v-.644531c0-.183594-.148438-.332031-.328125-.332031h-25.800782c-.183593 0-.332031.148437-.332031.332031v.644531c0 .179688.148438.328125.332031.328125zm0 0"/><path d="m2.976562 18.753906h25.800782c.179687 0 .328125-.144531.328125-.328125v-.644531c0-.183594-.148438-.332031-.328125-.332031h-25.800782c-.183593 0-.332031.148437-.332031.332031v.644531c0 .183594.148438.328125.332031.328125zm0 0"/><path d="m2.976562 25.386719h25.800782c.179687 0 .328125-.148438.328125-.328125v-.644532c0-.183593-.148438-.332031-.328125-.332031h-25.800782c-.183593 0-.332031.148438-.332031.332031v.644532c0 .179687.148438.328125.332031.328125zm0 0"/><path d="m2.976562 29.355469h25.800782c.179687 0 .328125-.148438.328125-.328125v-.644532c0-.183593-.148438-.332031-.328125-.332031h-25.800782c-.183593 0-.332031.148438-.332031.332031v.644532c0 .179687.148438.328125.332031.328125zm0 0"/></g></svg>

<svg xmlns="http://www.w3.org/2000/svg" xmlns:xlink="http://www.w3.org/1999/xlink" width="32px" height="32px" viewBox="0 0 32 32" version="1.1">
<g id="surface1">
     <defs>
  <style id="current-color-scheme" type="text/css">
   .ColorScheme-Text { color:#eeeeee; } .ColorScheme-Highlight { color:#424242; }
  </style>
 </defs>
<path style="fill:currentColor" class="ColorScheme-Text" d="M 2.976562 4.21875 L 28.777344 4.21875 C 28.957031 4.21875 29.105469 4.070312 29.105469 3.886719 L 29.105469 3.242188 C 29.105469 3.0625 28.957031 2.914062 28.777344 2.914062 L 2.976562 2.914062 C 2.792969 2.914062 2.644531 3.0625 2.644531 3.242188 L 2.644531 3.886719 C 2.644531 4.070312 2.792969 4.21875 2.976562 4.21875 Z M 2.976562 4.21875 "/>
     <defs>
  <style id="current-color-scheme" type="text/css">
   .ColorScheme-Text { color:#eeeeee; } .ColorScheme-Highlight { color:#424242; }
  </style>
 </defs>
<path style="fill:currentColor" class="ColorScheme-Text" d="M 2.976562 8.1875 L 28.777344 8.1875 C 28.957031 8.1875 29.105469 8.039062 29.105469 7.859375 L 29.105469 7.210938 C 29.105469 7.03125 28.957031 6.882812 28.777344 6.882812 L 2.976562 6.882812 C 2.792969 6.882812 2.644531 7.03125 2.644531 7.210938 L 2.644531 7.859375 C 2.644531 8.039062 2.792969 8.1875 2.976562 8.1875 Z M 2.976562 8.1875 "/>
     <defs>
  <style id="current-color-scheme" type="text/css">
   .ColorScheme-Text { color:#eeeeee; } .ColorScheme-Highlight { color:#424242; }
  </style>
 </defs>
<path style="fill:currentColor" class="ColorScheme-Text" d="M 2.976562 14.785156 L 28.777344 14.785156 C 28.957031 14.785156 29.105469 14.636719 29.105469 14.457031 L 29.105469 13.8125 C 29.105469 13.628906 28.957031 13.480469 28.777344 13.480469 L 2.976562 13.480469 C 2.792969 13.480469 2.644531 13.628906 2.644531 13.8125 L 2.644531 14.457031 C 2.644531 14.636719 2.792969 14.785156 2.976562 14.785156 Z M 2.976562 14.785156 "/>
     <defs>
  <style id="current-color-scheme" type="text/css">
   .ColorScheme-Text { color:#eeeeee; } .ColorScheme-Highlight { color:#424242; }
  </style>
 </defs>
<path style="fill:currentColor" class="ColorScheme-Text" d="M 2.976562 18.753906 L 28.777344 18.753906 C 28.957031 18.753906 29.105469 18.609375 29.105469 18.425781 L 29.105469 17.78125 C 29.105469 17.597656 28.957031 17.449219 28.777344 17.449219 L 2.976562 17.449219 C 2.792969 17.449219 2.644531 17.597656 2.644531 17.78125 L 2.644531 18.425781 C 2.644531 18.609375 2.792969 18.753906 2.976562 18.753906 Z M 2.976562 18.753906 "/>
     <defs>
  <style id="current-color-scheme" type="text/css">
   .ColorScheme-Text { color:#eeeeee; } .ColorScheme-Highlight { color:#424242; }
  </style>
 </defs>
<path style="fill:currentColor" class="ColorScheme-Text" d="M 2.976562 25.386719 L 28.777344 25.386719 C 28.957031 25.386719 29.105469 25.238281 29.105469 25.058594 L 29.105469 24.414062 C 29.105469 24.230469 28.957031 24.082031 28.777344 24.082031 L 2.976562 24.082031 C 2.792969 24.082031 2.644531 24.230469 2.644531 24.414062 L 2.644531 25.058594 C 2.644531 25.238281 2.792969 25.386719 2.976562 25.386719 Z M 2.976562 25.386719 "/>
     <defs>
  <style id="current-color-scheme" type="text/css">
   .ColorScheme-Text { color:#eeeeee; } .ColorScheme-Highlight { color:#424242; }
  </style>
 </defs>
<path style="fill:currentColor" class="ColorScheme-Text" d="M 2.976562 29.355469 L 28.777344 29.355469 C 28.957031 29.355469 29.105469 29.207031 29.105469 29.027344 L 29.105469 28.382812 C 29.105469 28.199219 28.957031 28.050781 28.777344 28.050781 L 2.976562 28.050781 C 2.792969 28.050781 2.644531 28.199219 2.644531 28.382812 L 2.644531 29.027344 C 2.644531 29.207031 2.792969 29.355469 2.976562 29.355469 Z M 2.976562 29.355469 "/>
</g>
</svg>
